packages/astro-components-stencil/src/icons/filter-list.svg

<svg xmlns="http://www.w3.org/2000/svg" viewBox="0 0 24 24"><g xmlns="http://www.w3.org/2000/svg" id="filter-list" fill-rule="nonzero">
            <path d="M11 18h2c.55 0 1-.45 1-1s-.45-1-1-1h-2c-.55 0-1 .45-1 1s.45 1 1 1zM3 7c0 .55.45 1 1 1h16c.55 0 1-.45 1-1s-.45-1-1-1H4c-.55 0-1 .45-1 1zm4 6h10c.55 0 1-.45 1-1s-.45-1-1-1H7c-.55 0-1 .45-1 1s.45 1 1 1z"/>
        </g></svg>

<svg width="24" height="24" viewBox="0 0 24 24" fill="none" xmlns="http://www.w3.org/2000/svg">
<path fill-rule="evenodd" clip-rule="evenodd" d="M3 7C3 7.55 3.45 8 4 8H20C20.55 8 21 7.55 21 7C21 6.45 20.55 6 20 6H4C3.45 6 3 6.45 3 7ZM11 18H13C13.55 18 14 17.55 14 17C14 16.45 13.55 16 13 16H11C10.45 16 10 16.45 10 17C10 17.55 10.45 18 11 18ZM17 13H7C6.45 13 6 12.55 6 12C6 11.45 6.45 11 7 11H17C17.55 11 18 11.45 18 12C18 12.55 17.55 13 17 13Z" fill="black"/>
</svg>
